svgs/sharp-light/watch-fitness.svg

<svg xmlns="http://www.w3.org/2000/svg" viewBox="0 0 384 512"><!--! Font Awesome Pro 6.6.0 by @fontawesome - https://fontawesome.com License - https://fontawesome.com/license (Commercial License) Copyright 2024 Fonticons, Inc. --><path d="M80 0L64 0l0 16 0 48L32 64 0 64 0 96 0 416l0 32 32 0 32 0 0 48 0 16 16 0 224 0 16 0 0-16 0-48 32 0 32 0 0-32 0-320 0-32-32 0-32 0 0-48 0-16L304 0 80 0zM96 480l0-32 192 0 0 32L96 480zM288 64L96 64l0-32 192 0 0 32zM32 96l320 0 0 320L32 416 32 96zm152.3 81.2c-11.5-11-26.8-17.2-42.7-17.2l-2.4 0C106.5 160 80 186.5 80 219.2c0 16.1 6.6 31.5 18.2 42.7l82.8 79.6L192 352.1l11.1-10.7 82.8-79.6c11.6-11.2 18.2-26.6 18.2-42.7c0-32.7-26.5-59.2-59.2-59.2l-2.4 0c-15.9 0-31.2 6.2-42.7 17.2l-7.7 7.4-7.7-7.4zm79.3 61.6L192 307.7l-71.7-68.9c-5.3-5.1-8.3-12.2-8.3-19.6c0-15 12.2-27.2 27.2-27.2l2.4 0c7.7 0 15 3 20.5 8.3l7.7 7.4L192 229l22.2-21.3 7.7-7.4c5.5-5.3 12.9-8.3 20.5-8.3l2.4 0c15 0 27.2 12.2 27.2 27.2c0 7.4-3 14.5-8.3 19.6z"/></svg>

<svg xmlns="http://www.w3.org/2000/svg" viewBox="0 0 384 512"><!--! Font Awesome Pro 6.4.0 by @fontawesome - https://fontawesome.com License - https://fontawesome.com/license (Commercial License) Copyright 2023 Fonticons, Inc. --><path d="M80 0H64V16 64H32 0V96 416v32H32 64l0 48v16H80l224 0h16V496 448h32 32V416 96 64H352 320V16 0H304 80zM96 480l0-32H288v32L96 480zM288 64H96V32H288V64zM32 96H352V416H32V96zm152.3 81.2c-11.5-11-26.8-17.2-42.7-17.2h-2.4C106.5 160 80 186.5 80 219.2c0 16.1 6.6 31.5 18.2 42.7l82.8 79.6L192 352.1l11.1-10.7 82.8-79.6c11.6-11.2 18.2-26.6 18.2-42.7c0-32.7-26.5-59.2-59.2-59.2h-2.4c-15.9 0-31.2 6.2-42.7 17.2l-7.7 7.4-7.7-7.4zm79.3 61.6L192 307.7l-71.7-68.9c-5.3-5.1-8.3-12.2-8.3-19.6c0-15 12.2-27.2 27.2-27.2h2.4c7.7 0 15 3 20.5 8.3l7.7 7.4L192 229l22.2-21.3 7.7-7.4c5.5-5.3 12.9-8.3 20.5-8.3h2.4c15 0 27.2 12.2 27.2 27.2c0 7.4-3 14.5-8.3 19.6z"/></svg>
